X:1
T:Title
L:1/8
M:4/4
I:linebreak $
K:G
V:1 treble nm="Voice"
V:1
"G" dBBd"C" e2 ge |"G" d2 Be dBBe | dBBd"C" e2 ge |1"G" dBAB"C" GEEe :|2"G" dBAB"C" GEEf |: %5
"G" g2 gf gbag |"D" fdad fddf |"C" gfef"G" gabg |"D" agfa"C" geef |"G" g2 gf gbag |"D" fdad bdaf | %11
"C" geed efge |1"G" dBAB"C" GEEf :|2"G" dBAB"C" GE E2 |] %14
